X:719
T:Sun Assembly
C:c.1750
S:Colin Hume's website,  colinhume.com  - chords can also be printed below the stave.
Q:1/2=112
M:2/2
L:1/4
K:A
P:A
| "A"a2 {f}e2 | {d}c2 BA | "D"f2 A2 | "E7"G2 FE |\
"A"Ac ec | "B7"B^d fa | "E"ge "B7"f^d | "E7"e2 E2 |
| "A"a2 {f}e2 | {d}c2 BA | "D"f2 A2 | "E7"G2 FE |\
"D"FA dF | "E7"EG Bd | "E7"cB AG | "A"A4 |
P:B
| "A"ce ag | "D"f2 "E7"ed | "A"ce ag | "D"f2 "E7"ed |\
"A"ce ag | "D"gf "A"fe | "Bm"ed "A"dc | "E7"c2 B2 |
| "Bm"dc BA | "E"G/A/B E2 | "Bm"dc BA | "D"f/g/a "E"g2 |\
"D"fA af | "A"ec "Bm"BA | "E7"E2 G2 | "A"A4 |]

